packages/paste-icons/svg/Play.svg

<svg xmlns="http://www.w3.org/2000/svg" width="20" height="20" viewBox="0 0 20 20">
  <path fill="#707578" fill-rule="evenodd" d="M6.15340352,4.46522223 C6.42635285,4.03353829 6.97813371,3.88204117 7.42992352,4.09660543 L7.53223529,4.15265748 L15.5343505,9.15465035 C15.6612098,9.23394807 15.768524,9.34057879 15.848361,9.46666093 C16.1215962,9.89816607 16.0201074,10.4583099 15.6300135,10.7703782 L15.5349078,10.8378187 L7.53279264,15.8471245 C7.37324073,15.9470036 7.18854086,16 7,16 C6.48716416,16 6.06449284,15.6161659 6.00672773,15.1216693 L6,15.0057146 L6,4.994416 C6,4.80717518 6.05317458,4.62373965 6.15340352,4.46522223 Z M7,4.994416 L7,15.0057146 L15.0021152,9.99640887 L7,4.994416 Z"/>
</svg>

<svg width="20" height="20" viewBox="0 0 20 20" fill="none"><path fill-rule="evenodd" clip-rule="evenodd" d="M6.153 4.465a1.003 1.003 0 0 1 1.277-.368l.102.056 8.002 5.002a.99.99 0 0 1 .096 1.616l-.095.067-8.002 5.01c-.16.099-.344.152-.533.152a.998.998 0 0 1-.993-.878L6 15.006V4.994a.99.99 0 0 1 .153-.529Z" fill="#606B85"/></svg>
